X:314
T:Sivas Halayi
T:Dance from Sivas
Z:Jack Campin, http://www.campin.me.uk/
F:Jack Campin's Nine-Note Tunebook
% last edit 03-02-2013
N:look on YouTube for how to dance it
M:C
L:1/16
Q:1/4=60
K:DMin
D2CD  C2G2 AFGE F2GE|D2CD  C2G2 AFGE F2GE|
D2CD  C2G2 FGFE DCDE|FGFE  EFEC D8      :|
ABGG  FGAF A3A  A2A2|ABAG  FGAG A8       |
GA=Bc c2Bc GABc c2Bc|GA=Bc d2cB A8       |
BABc  BAGB A8       |BABc  BAGB A8       |
G2FG  FGAG BAGA F2GE|D2CD  C2G2 AFGE F2GE|
D2CD  C2G2 AFGE F2GE|D2CD  C2G2 AFGE F2GE|
D2CD  C2G2 FGFE DCDE|FGFE  EDEC D8      |]

